X:1
T:Title
%%score { 1 | ( 2 3 ) }
L:1/8
Q:1/4=100
M:4/4
K:C
V:1 treble nm="Grand Piano"
V:2 bass 
V:3 bass 
V:1
 [Ec]3 [FA] [EG]2 [CE]2 | [B,D]2 [B,G]2 [DF]2 [CE]2 | [EG]3 G A2 [FB]2 | [Gc]2 d2 c2 B2 | %4
w: Thomas~Clark * * *||||
 [Ec]3 [GB] A2 G2 | F2 E2 [CE]2 [B,D]2 | C3 D E2 C2 | G2 G2 c4 | [Ge]3 [Gd] [Gc]2 d2 | c4 [DB]4 | %10
w: ||||||
 [Ec]8 |] %11
w: |
V:2
 [C,G,]3 [C,C] [C,C]2 [C,G,]2 | [G,,G,]2 [G,,G,]2 [B,,G,]2 [C,G,]2 | [C,C]3 [E,C] [F,CF]2 [D,G,]2 | %3
 [E,G,]2 [F,A,F]2 E2 D2 | [C,G,]3 [C,C] [F,CF]2 [E,C]2 | [D,G,B,]2 [C,G,C]2 [G,,G,]2 [G,,G,]2 | %6
 C,3 D, E,2 C,2 | G,2 G,2 [C,C]4 | [C,C]3 [D,B,] [E,C]2 [F,A,F]2 | [G,E]4 [G,,G,]4 | [C,G,]8 |] %11
V:3
 x8 | x8 | x8 | z4 G,4 | x8 | x8 | x8 | x8 | x8 | x8 | x8 |] %11

